src/assets/skills/webpack.svg

<svg height="100pt" viewBox="0 0 100 100" width="100pt" xmlns="http://www.w3.org/2000/svg"><path d="m0 0h100v100h-100z" fill="#2b3a42"/><path d="m50 15 30.935 17.498v35.004l-30.935 17.498-30.935-17.498v-35.004z" fill="#fff"/><path d="m75.412 66.295-24.389 13.797v-10.743l15.196-8.362zm1.67-1.511v-28.849l-8.921 5.156v18.545zm-52.59 1.511 24.389 13.797v-10.743l-15.204-8.362zm-1.67-1.511v-28.849l8.921 5.156v18.545zm1.047-30.719 25.012-14.149v10.384l-16.027 8.817-.128.072zm52.166 0-25.012-14.149v10.384l16.027 8.809.128.072z" fill="#8ed6fb"/><path d="m48.881 66.902-14.996-8.249v-16.331l14.996 8.657zm2.142 0 14.996-8.241v-16.339l-14.996 8.657zm-16.123-26.466 15.052-8.274 15.052 8.274-15.052 8.689z" fill="#1c78c0"/></svg>

<?xml version="1.0" encoding="UTF-8" standalone="no"?><!-- Generator: Gravit.io --><svg xmlns="http://www.w3.org/2000/svg" xmlns:xlink="http://www.w3.org/1999/xlink" style="isolation:isolate" viewBox="0 0 100 100" width="100pt" height="100pt"><rect x="0" y="0" width="100" height="100" transform="matrix(1,0,0,1,0,0)" fill="rgb(43,58,66)"/><g><path d=" M 50 15 L 80.935 32.498 L 80.935 67.502 L 50 85 L 19.065 67.502 L 19.065 32.498 L 50 15 Z " fill="rgb(255,255,255)"/><path d=" M 75.412 66.295 L 51.023 80.092 L 51.023 69.349 L 66.219 60.987 L 75.412 66.295 L 75.412 66.295 Z  M 77.082 64.784 L 77.082 35.935 L 68.161 41.091 L 68.161 59.636 L 77.082 64.784 L 77.082 64.784 Z  M 24.492 66.295 L 48.881 80.092 L 48.881 69.349 L 33.677 60.987 L 24.492 66.295 Z  M 22.822 64.784 L 22.822 35.935 L 31.743 41.091 L 31.743 59.636 L 22.822 64.784 Z  M 23.869 34.065 L 48.881 19.916 L 48.881 30.3 L 32.854 39.117 L 32.726 39.189 L 23.869 34.065 L 23.869 34.065 Z  M 76.035 34.065 L 51.023 19.916 L 51.023 30.3 L 67.05 39.109 L 67.178 39.181 L 76.035 34.065 Z " fill="rgb(142,214,251)"/><path d=" M 48.881 66.902 L 33.885 58.653 L 33.885 42.322 L 48.881 50.979 L 48.881 66.902 Z  M 51.023 66.902 L 66.019 58.661 L 66.019 42.322 L 51.023 50.979 L 51.023 66.902 Z  M 34.9 40.436 L 49.952 32.162 L 65.004 40.436 L 49.952 49.125 L 34.9 40.436 L 34.9 40.436 Z " fill="rgb(28,120,192)"/></g></svg>
